app/images/logo.svg

<svg width="120" height="16" viewBox="0 0 120 16" fill="none" xmlns="http://www.w3.org/2000/svg">
<g clip-path="url(#clip0)">
<path d="M16.0841 0.994374C14.4889 1.20837 14.0984 1.42236 13.2247 3.55569C12.5827 5.11948 9.29303 13.0602 8.12478 16.0001H7.34044C5.9339 12.1845 3.88534 6.63717 2.52514 3.1277C1.86324 1.37297 1.45286 1.13594 0 0.994374V0.335938H6.05305V0.994374C4.28909 1.18532 4.19312 1.46844 4.52737 2.34746C5.12308 4.07585 6.86387 8.79355 8.36307 12.731C9.62729 9.67256 11.1993 5.81742 12.3344 2.82153C12.8573 1.4454 12.5727 1.23141 10.6168 0.994374V0.335938H16.0973L16.0841 0.994374Z" fill="black"/>
<path d="M26.2273 15.74V15.0816C28.1799 14.8709 28.3718 14.7754 28.3718 12.7771V3.3417C28.3718 1.30384 28.1799 1.20837 26.2273 0.994374V0.335938H32.6146V0.994374C30.6289 1.20837 30.4436 1.30384 30.4436 3.3417V12.754C30.4436 14.7919 30.6355 14.8643 32.6146 15.0586V15.717L26.2273 15.74Z" fill="black"/>
<path d="M56.8763 15.9309C56.5686 15.9309 56.3038 15.9045 55.996 15.8815C54.2552 15.763 53.3253 15.3119 52.2762 13.8436C51.3958 12.6354 50.5387 11.1407 49.7742 9.93252C49.2976 9.17202 48.9899 9.03046 47.7885 9.03046H46.9512V12.7539C46.9512 14.7687 47.216 14.8873 49.1222 15.0584V15.7169H42.7449V15.0584C44.7306 14.8477 44.8894 14.7523 44.8894 12.7539V3.29548C44.8894 1.28067 44.628 1.20824 42.7449 0.990956V0.33252H48.8211C50.5619 0.33252 51.7301 0.546515 52.6336 1.13911C53.1546 1.47522 53.5784 1.94092 53.8628 2.49008C54.1473 3.03924 54.2825 3.65279 54.2552 4.26996C54.2552 6.30782 52.9314 7.58848 51.1807 8.34569C51.611 9.08313 52.6336 10.67 53.3517 11.7366C53.9198 12.5939 54.5479 13.4102 55.2315 14.1794C55.6859 14.7115 56.2935 15.0919 56.9723 15.2691L56.8763 15.9309ZM48.0831 8.214C49.3241 8.214 50.1085 8.02635 50.7042 7.52923C51.6341 6.84117 52.028 5.88314 52.028 4.61235C52.028 2.07408 50.3368 1.15227 48.5034 1.15227C47.8117 1.15227 47.4046 1.24445 47.2391 1.38931C47.024 1.55392 46.9512 1.79095 46.9512 2.40659V8.214H48.0831Z" fill="black"/>
<path d="M84.0204 0.994374C82.498 1.16227 81.995 1.3993 81.9255 2.48902C81.899 3.24622 81.8527 4.24375 81.8527 6.43963V15.9475H80.9459L70.7493 3.55569V9.48162C70.7493 11.615 70.8188 12.6816 70.8685 13.3697C70.9148 14.5779 71.5105 14.9335 73.2248 15.075V15.7335H67.4366V15.075C68.9126 14.9565 69.4851 14.601 69.5811 13.4289C69.6506 12.6684 69.7002 11.6018 69.7002 9.4454V3.41413C69.7002 2.75569 69.6506 2.3705 69.2237 1.84705C68.7703 1.25445 68.2705 1.11289 67.1023 0.994374V0.335938H70.6765L80.7804 12.2602V6.44623C80.7804 4.24376 80.7341 3.22318 80.6612 2.51206C80.5884 1.4454 80.0424 1.11289 78.1361 0.994374V0.335938H84.0204V0.994374Z" fill="black"/>
<path d="M103.993 15.7399V15.0815C105.541 14.8939 105.73 14.6568 105.399 13.7646C105.068 12.8725 104.611 11.6544 104.112 10.163H98.9621C98.5815 11.2297 98.2241 12.1383 97.8899 13.126C97.367 14.6667 97.7012 14.8544 99.6538 15.1013V15.7597H94.1501V15.1013C95.6526 14.9136 96.0332 14.7457 96.8672 12.6124L101.798 0.167929L102.563 0.0263672C104.062 4.07904 105.707 8.5597 107.196 12.6618C107.957 14.7227 108.172 14.9136 109.864 15.1013V15.7597L103.993 15.7399ZM101.61 3.10456C100.845 5.14242 100.034 7.2988 99.3195 9.17205H103.777L101.61 3.10456Z" fill="black"/>
</g>
<defs>
<clipPath id="clip0">
<rect width="120" height="16" fill="white"/>
</clipPath>
</defs>
</svg>

<svg width="120" height="16" fill="none" xmlns="http://www.w3.org/2000/svg"><g clip-path="url(#a)" fill="#000"><path d="M16.084.994c-1.595.214-1.986.428-2.86 2.562-.641 1.563-3.931 9.504-5.1 12.444H7.34C5.934 12.184 3.885 6.637 2.525 3.128 1.863 1.373 1.453 1.136 0 .994V.336h6.053v.658c-1.764.191-1.86.474-1.526 1.353.596 1.729 2.337 6.447 3.836 10.384 1.264-3.058 2.836-6.914 3.971-9.91.523-1.376.239-1.59-1.717-1.827V.336h5.48l-.013.658zM26.227 15.74v-.658c1.953-.211 2.145-.307 2.145-2.305V3.342c0-2.038-.192-2.134-2.145-2.348V.336h6.388v.658c-1.986.214-2.171.31-2.171 2.348v9.412c0 2.038.192 2.11 2.17 2.305v.658l-6.387.023zM56.876 15.93c-.307 0-.572-.025-.88-.048-1.74-.119-2.67-.57-3.72-2.038-.88-1.209-1.737-2.703-2.502-3.911-.476-.761-.784-.903-1.986-.903h-.837v3.724c0 2.015.265 2.133 2.171 2.304v.659h-6.377v-.659c1.986-.21 2.144-.306 2.144-2.304V3.295c0-2.014-.261-2.087-2.144-2.304V.333h6.076c1.74 0 2.91.214 3.813.806.52.336.944.802 1.229 1.351.284.55.42 1.163.392 1.78 0 2.038-1.324 3.318-3.074 4.076.43.737 1.453 2.324 2.17 3.39a21.829 21.829 0 0 0 1.88 2.443 3.427 3.427 0 0 0 1.741 1.09l-.096.662zm-8.793-7.716c1.241 0 2.026-.188 2.621-.685.93-.688 1.324-1.646 1.324-2.917 0-2.538-1.691-3.46-3.525-3.46-.691 0-1.098.092-1.264.237-.215.165-.288.402-.288 1.018v5.807h1.132zM84.02.994c-1.522.168-2.025.405-2.094 1.495-.027.757-.073 1.755-.073 3.95v9.509h-.907L70.749 3.556v5.926c0 2.133.07 3.2.12 3.888.046 1.208.641 1.564 2.356 1.705v.659h-5.788v-.659c1.476-.118 2.048-.474 2.144-1.646.07-.76.12-1.827.12-3.984v-6.03c0-.66-.05-1.045-.477-1.568-.454-.593-.954-.734-2.122-.853V.336h3.575L80.78 12.26V6.446c0-2.202-.046-3.223-.119-3.934-.073-1.067-.619-1.4-2.525-1.518V.336h5.884v.658zM103.993 15.74v-.659c1.548-.187 1.737-.424 1.406-1.316-.331-.893-.788-2.11-1.287-3.602h-5.15c-.38 1.067-.738 1.975-1.072 2.963-.523 1.54-.189 1.728 1.764 1.975v.659H94.15V15.1c1.503-.187 1.883-.355 2.717-2.489L101.798.168l.765-.142c1.499 4.053 3.144 8.534 4.633 12.636.761 2.06.976 2.252 2.668 2.44v.658l-5.871-.02zM101.61 3.105c-.765 2.037-1.576 4.194-2.29 6.067h4.457l-2.167-6.067z"/></g><defs><clipPath id="a"><path fill="#fff" d="M0 0h120v16H0z"/></clipPath></defs></svg>
